img/c3.svg

<svg width="120" height="119" viewBox="0 0 120 119" fill="none" xmlns="http://www.w3.org/2000/svg">
<g clip-path="url(#clip0)">
<path d="M60 119C93.1371 119 120 92.3609 120 59.5C120 26.6391 93.1371 0 60 0C26.8629 0 0 26.6391 0 59.5C0 92.3609 26.8629 119 60 119Z" fill="url(#paint0_linear)"/>
<path d="M66.9865 0.414429L64.5094 8.06761C63.9098 9.91978 62.408 11.3466 60.5161 11.861L54.3023 13.5504C53.8022 13.6864 53.2856 13.7554 52.767 13.7554H43.4688C42.4988 13.7554 41.6787 14.4676 41.5505 15.421L40.4841 23.3521L34.545 23.6606C33.5463 23.7124 32.752 24.5101 32.7122 25.5009L32.5066 30.6195C32.4602 31.7721 33.4423 32.7046 34.6013 32.6088L38.558 32.2818C39.5752 32.1977 40.5042 31.6752 41.0991 30.8526L44.7584 25.7914L52.5848 25.5141C54.2588 25.4549 55.4414 27.125 54.8337 28.673C53.4698 32.1461 53.468 32.4436 53.468 32.749C53.468 33.81 54.3338 34.6683 55.4034 34.6683C56.3599 34.6683 57.1556 33.9785 57.3105 33.075C57.4427 32.6327 58.0338 31.0992 58.8077 29.1525C59.1309 28.3394 60.2445 28.2198 60.7301 28.9491L61.2305 29.7C62.1555 31.0888 63.878 31.7279 65.4952 31.2828L68.9512 30.3318C69.9145 30.0668 70.6924 29.3616 71.0449 28.434L71.7077 26.69C72.1758 25.4583 73.2476 24.5505 74.5474 24.2844L76.781 23.8272C78.3009 23.5162 79.9125 24.4276 80.1771 25.9441C80.4473 27.4934 79.3495 28.901 77.8245 29.0744L72.4388 29.2178C71.3435 29.2471 70.4637 30.1221 70.4377 31.2085L70.4255 31.7198C70.4156 32.1305 70.6441 32.5105 71.0131 32.6971L74.1101 34.2641C75.289 34.8605 75.6731 36.3471 74.929 37.4325C74.5195 38.0296 73.8389 38.3868 73.1107 38.3868H56.7764C56.3489 38.3868 55.9252 38.3071 55.5274 38.1516L41.8207 32.7971C40.8063 32.4008 39.653 32.6153 38.8523 33.3491L25.8713 45.2467C24.8365 46.1953 24.4031 47.6265 24.7399 48.9834L27.3792 59.616C27.7866 61.2571 29.2284 62.4408 30.9302 62.5317L45.5548 63.3115C48.4322 63.4649 50.7607 65.6878 51.0251 68.5331L52.1344 80.4766C52.2173 81.37 52.4548 82.2316 52.8459 83.0409C54.0783 85.5903 56.9515 91.3853 58.5488 93.3885C60.6052 95.9677 65.6716 96.07 67.3793 94.5281L79.2701 84.8791C80.2638 83.9819 80.9128 82.7708 81.1069 81.452L82.5 71.9757L91.9423 61.6567C92.862 60.6512 92.449 59.1095 91.2785 58.6115L91.1093 58.724C90.3931 59.2 89.5669 59.4886 88.7126 59.5637C88.5614 59.5767 88.4102 59.5844 88.2591 59.5844C86.5088 59.5844 84.8852 58.7035 83.9421 57.2151L76.7332 45.8638C76.1644 44.966 76.4365 43.7813 77.34 43.2154C78.251 42.655 79.44 42.923 80.0107 43.8171L87.2196 55.1702C87.4671 55.5639 87.9056 55.7775 88.3744 55.7401C88.5804 55.7213 88.7827 55.6502 88.9566 55.5358L98.7007 50.2403C99.7163 49.6883 99.9853 48.3621 99.2637 47.4638C98.8624 46.9643 98.2301 46.7052 97.5905 46.7779L95.5437 47.0113C94.9938 47.074 94.4433 46.9004 94.0308 46.5346L87.9019 41.0978C87.1062 40.3912 87.0382 39.1784 87.7507 38.3875C88.4613 37.5966 89.6843 37.531 90.4838 38.2376L95.9651 43.0996L99.2956 42.7192C99.9856 42.6348 100.67 42.9346 101.08 43.4934L101.721 44.3631L104.967 43.9768C106.544 43.789 108.077 44.5762 108.833 45.9621L115.388 57.9814C115.864 58.8534 116.661 59.5093 117.613 59.8112L119.971 60.6326C119.978 60.2547 120 59.88 120 59.5005C120 28.9842 96.8297 3.84869 66.9865 0.414429ZM92.0508 33.2589C91.7201 33.482 91.342 33.5887 90.9696 33.5887C90.3478 33.5887 89.7373 33.2926 89.3648 32.7434L85.3331 26.8259C84.7341 25.9488 84.9663 24.7548 85.853 24.1624C86.7356 23.5662 87.9434 23.8007 88.5389 24.6779L92.5706 30.5953C93.1697 31.4725 92.9372 32.6664 92.0508 33.2589Z" fill="#FEFABF"/>
<path d="M86.1272 90.9296C85.6887 90.9296 85.2464 90.7815 84.8836 90.4798C84.0652 89.7977 83.9592 88.5868 84.6473 87.7751L89.7279 81.7773C90.4139 80.9675 91.6369 80.8606 92.4553 81.543C93.2738 82.2254 93.3797 83.4361 92.6916 84.2477L87.611 90.2456C87.229 90.6972 86.6791 90.9296 86.1272 90.9296Z" fill="#FEFABF"/>
<path d="M43.4937 2.29894L41.7717 7.38712C41.4314 8.39188 41.9777 9.48077 42.9909 9.81825C43.1951 9.88565 43.403 9.91749 43.6071 9.91749C44.4162 9.91749 45.1702 9.41151 45.4425 8.60919L47.9494 1.2019C46.4405 1.50661 44.959 1.88383 43.4937 2.29894Z" fill="#FEFABF"/>
<path d="M10.0486 92.46L11.7232 77.3726C11.857 76.1884 11.4286 75.0098 10.5638 74.1826L0.234612 64.604C1.11305 74.8499 4.59985 84.3557 10.0486 92.46Z" fill="#FEFABF"/>
<path d="M60 0C57.8295 0 55.6877 0.120627 53.5767 0.34352L53.3752 4.84716C52.8687 6.35604 53.689 7.98671 55.2105 8.48898C55.5148 8.59008 55.8248 8.63703 56.1291 8.63703C57.3443 8.63703 58.4784 7.87422 58.883 6.66888L61.1152 0.0278906C60.7427 0.0211504 60.3741 0 60 0Z" fill="#FEFABF"/>
</g>
<defs>
<linearGradient id="paint0_linear" x1="120" y1="3.60633e-06" x2="1.0709e-06" y2="119" gradientUnits="userSpaceOnUse">
<stop stop-color="#FFCB35"/>
<stop offset="0.416667" stop-color="#FF9941"/>
<stop offset="0.744792" stop-color="#FF6D4C"/>
<stop offset="0.864583" stop-color="#FF6B4C"/>
<stop offset="1" stop-color="#FF0066"/>
</linearGradient>
<clipPath id="clip0">
<rect width="120" height="119" fill="white"/>
</clipPath>
</defs>
</svg>

<svg width="120" height="119" viewBox="0 0 120 119" fill="none" xmlns="http://www.w3.org/2000/svg"><g clip-path="url(#a)"><path d="M60 119c33.137 0 60-26.64 60-59.5S93.137 0 60 0 0 26.64 0 59.5 26.863 119 60 119z" fill="url(#b)"/><path d="M66.987.414l-2.478 7.654a5.785 5.785 0 0 1-3.993 3.793l-6.214 1.69c-.5.135-1.016.204-1.535.204h-9.298c-.97 0-1.79.713-1.919 1.666l-1.066 7.931-5.939.309a1.927 1.927 0 0 0-1.833 1.84l-.205 5.118a1.928 1.928 0 0 0 2.094 1.99l3.957-.327a3.49 3.49 0 0 0 2.541-1.43l3.66-5.06 7.826-.278c1.674-.06 2.856 1.611 2.249 3.159-1.364 3.473-1.366 3.77-1.366 4.076 0 1.061.866 1.92 1.935 1.92.957 0 1.753-.69 1.907-1.594.133-.442.724-1.976 1.498-3.923.323-.813 1.437-.932 1.922-.203l.5.751a3.886 3.886 0 0 0 4.265 1.583l3.456-.951a3.123 3.123 0 0 0 2.094-1.898l.663-1.744a3.862 3.862 0 0 1 2.84-2.406l2.233-.457c1.52-.31 3.131.6 3.396 2.117a2.684 2.684 0 0 1-2.353 3.13l-5.385.144a2.048 2.048 0 0 0-2.001 1.99l-.013.512c-.01.41.22.79.588.977l3.097 1.567a2.171 2.171 0 0 1 .819 3.168c-.41.598-1.09.955-1.818.955H56.776a3.43 3.43 0 0 1-1.249-.235l-13.706-5.355a2.858 2.858 0 0 0-2.969.552l-12.98 11.898a3.819 3.819 0 0 0-1.132 3.736l2.64 10.633a3.863 3.863 0 0 0 3.55 2.916l14.625.78c2.877.153 5.206 2.376 5.47 5.221l1.11 11.944a7.45 7.45 0 0 0 .71 2.564c1.233 2.55 4.107 8.344 5.704 10.347 2.056 2.58 7.123 2.682 8.83 1.14L79.27 84.88a5.745 5.745 0 0 0 1.837-3.427l1.393-9.476 9.442-10.32c.92-1.005.507-2.547-.663-3.044l-.17.112a5.15 5.15 0 0 1-2.85.86c-1.75 0-3.374-.88-4.317-2.369l-7.209-11.351a1.913 1.913 0 0 1 .607-2.649c.911-.56 2.1-.292 2.67.602l7.21 11.353c.247.394.686.608 1.154.57.206-.019.409-.09.583-.204L98.7 50.24a1.842 1.842 0 0 0 .563-2.776 1.875 1.875 0 0 0-1.673-.686l-2.047.233c-.55.063-1.1-.11-1.513-.476l-6.13-5.437a1.91 1.91 0 0 1-.15-2.71 1.946 1.946 0 0 1 2.733-.15l5.481 4.862 3.33-.38a1.93 1.93 0 0 1 1.785.773l.641.87 3.246-.386a3.88 3.88 0 0 1 3.866 1.985l6.555 12.02a3.864 3.864 0 0 0 2.225 1.83l2.358.82c.007-.377.029-.752.029-1.131C120 28.984 96.83 3.849 66.987.413zM92.05 33.26a1.93 1.93 0 0 1-1.081.33 1.934 1.934 0 0 1-1.605-.846l-4.032-5.917a1.906 1.906 0 0 1 .52-2.664 1.942 1.942 0 0 1 2.686.516l4.032 5.917c.599.878.366 2.071-.52 2.664zM86.127 90.93c-.438 0-.88-.149-1.243-.45a1.908 1.908 0 0 1-.237-2.705l5.08-5.998a1.948 1.948 0 0 1 2.728-.234c.819.682.925 1.893.237 2.705l-5.081 5.998a1.939 1.939 0 0 1-1.484.684zM43.494 2.299l-1.722 5.088a1.917 1.917 0 0 0 1.219 2.431 1.936 1.936 0 0 0 2.452-1.21l2.506-7.406c-1.508.305-2.99.682-4.455 1.097zM10.049 92.46l1.674-15.087a3.82 3.82 0 0 0-1.16-3.19L.236 64.604a58.826 58.826 0 0 0 9.814 27.856z" fill="#FEFABF"/><path d="M60 0c-2.17 0-4.312.12-6.423.344l-.202 4.503a2.873 2.873 0 0 0 1.836 3.642c.304.101.614.148.918.148 1.215 0 2.35-.763 2.754-1.968L61.115.028C60.743.02 60.375 0 60 0z" fill="#FEFABF"/></g><defs><linearGradient id="b" x1="120" x2="0" y2="119" gradientUnits="userSpaceOnUse"><stop stop-color="#FFCB35"/><stop offset=".417" stop-color="#FF9941"/><stop offset=".745" stop-color="#FF6D4C"/><stop offset=".865" stop-color="#FF6B4C"/><stop offset="1" stop-color="#F06"/></linearGradient><clipPath id="a"><path fill="#fff" d="M0 0h120v119H0z"/></clipPath></defs></svg>
